X:1
T:Title
%%score 1 2 3 4
L:1/8
Q:1/4=180
M:4/4
K:C
V:1 treble nm="Church Organ, Soprano"
V:2 treble nm="French Horn, Alto"
V:3 bass nm="Trombone, Tenor"
V:4 bass nm="Tuba, Bass"
V:1
 c4 G4- | G2 F2 E4 | A4 G4- | G8 | c4 A2 B2 | c4 F4 | E4 D4- | D8 | D4 G4- | G2 G2 c4 | A4 B4- | %11
w: By~Aliquis *|||||||||||
 B8 | d4 c4 | e4 d2 c2 | B4 c4- | c8 |] %16
w: |||||
V:2
 E4 D4- | D2 D2 C4 | C2 D2 E4- | E8 | G4 F4 | C4 D4 | C4 B,4- | B,8 | D4 E4- | E2 E2 E4 | ^F4 G4- | %11
w: Hark!~ On~|* the~ mid|night~ * air~||Ce les|tial~ voi|ces~ swell:~||The~ Hosts~|* of~ Heaven~|pro claim,~|
 G8 | G4 G4 | G4 A4 | G2 F2 E4- | E8 |] %16
w: |�God~ comes~|on~ earth~|to~ * dwell!�~||
V:3
 G,4 G,4- | G,2 G,2 G,4 | A,2 B,2[K:treble] C4- | C8 | C4 C4 | G,4[K:bass] G,4 | G,4 G,4- | G,8 | %8
 B,4 B,4- | B,2 B,2[K:treble] C4 | D4 D4- | D8 | B,4 C4 | C4 A,4 | D4 C4- | C8 |] %16
V:4
 C,4 B,,4- | B,,2 B,,2 C,4 | F,,4 C,4- | C,8 | E,4 F,4 | E,4 B,,4 | C,4 G,,4- | G,,8 | G,4 E,4- | %9
 E,2 E,2 A,,4 | D,4 G,4- | G,8 | F,4 E,4 | C,4 F,4 | G,4 C,4- | C,8 |] %16

